;FLAVOR:RepRap
;TIME:1609
;Filament used: 0.200734m
;Layer height: 0.06
;Generated with Cura_SteamEngine 2.4.0
 ;Basic settings: Layer height: 0.06 Walls: 0.8 Fill: 100.0
 ;metric values
 M107
 G28
 G29
 G90        ;absolute positioning
 G92 E0; reset extruder distance
 G1 Z5 F300 ;move nozzle up 5mm for safe homing
 G1 X0 Y0 Z0 F5000; move nozzle to home
 M300 S600P200
 M300 S800 P200
 M190 S90 ;Uncomment to add your own bed temperature line
 M109 S230 ;Uncomment to add your own temperature line
 M82        ;set extruder to absolute mode
 M107       ;start with the fan off
 G1 Z15.0 F80 ;move the platform down 15mm
 G92 E0                  ;zero the extruded length
 G1 F200 E3              ;extrude 3mm of feed stock
 G92 E0                  ;zero the extruded length again
 G1 F80
 ;Put printing message on LCD screen
 M117 Printing...

;LAYER_COUNT:121
;LAYER:0
M107
G1 F1500 E-3
G0 F2400 X92.819 Y31.03 Z0.2
;TYPE:SKIRT
G1 F1500 E0
G1 F600 X93.097 Y30.291 E0.02626
G1 X93.306 Y29.846 E0.04261
G1 X93.642 Y29.189 E0.06716
G1 X94.037 Y28.505 E0.09343
G1 X94.312 Y28.107 E0.10952
G1 X94.744 Y27.522 E0.1337
G1 X95.245 Y26.912 E0.15996
G1 X95.579 Y26.566 E0.17595
G1 X96.098 Y26.061 E0.20004
G1 X96.692 Y25.539 E0.22634
G1 X97.094 Y25.241 E0.24298
G1 X97.707 Y24.816 E0.26779
G1 X98.378 Y24.399 E0.29407
G1 X98.811 Y24.178 E0.31024
G1 X99.463 Y23.869 E0.33424
G1 X100.192 Y23.567 E0.36048
G1 X100.989 Y23.331 E0.38813
G1 X102.064 Y23.074 E0.42489
G1 X102.841 Y22.929 E0.45118
G1 X103.651 Y22.863 E0.47821
G1 X104.371 Y22.842 E0.50217
G1 X105.16 Y22.859 E0.52841
G1 X105.636 Y22.908 E0.54433
G1 X106.366 Y23.006 E0.56883
G1 X107.142 Y23.151 E0.59508
G1 X107.934 Y23.385 E0.62255
G1 X108.958 Y23.748 E0.65869
G1 X109.688 Y24.049 E0.68495
G1 X110.398 Y24.431 E0.71177
G1 X111.031 Y24.815 E0.73639
G1 X111.684 Y25.258 E0.76264
G1 X112.074 Y25.573 E0.77931
G1 X112.62 Y26.043 E0.80327
G1 X113.191 Y26.587 E0.8295
G1 X113.493 Y26.924 E0.84455
G1 X113.957 Y27.474 E0.86849
G1 X114.435 Y28.103 E0.89476
G1 X114.706 Y28.529 E0.91156
G1 X115.088 Y29.174 E0.93649
G1 X115.456 Y29.873 E0.96276
G1 X115.65 Y30.33 E0.97927
G1 X115.907 Y30.993 E1.00292
G1 X116.154 Y31.743 E1.02919
G1 X116.268 Y32.209 E1.04514
G1 X116.42 Y32.933 E1.06975
G1 X116.543 Y33.713 E1.09601
G1 X116.58 Y34.229 E1.11322
G1 X116.609 Y34.966 E1.13775
G1 X116.6 Y35.756 E1.16403
G1 X116.557 Y36.222 E1.17959
G1 X116.47 Y36.932 E1.20338
G1 X116.334 Y37.71 E1.22965
G1 X116.212 Y38.18 E1.2458
G1 X116.005 Y38.885 E1.27024
G1 X115.745 Y39.631 E1.29652
G1 X115.536 Y40.099 E1.31357
G1 X115.219 Y40.751 E1.33768
G1 X114.838 Y41.442 E1.36392
G1 X114.577 Y41.838 E1.3797
G1 X114.15 Y42.443 E1.40433
G1 X113.662 Y43.064 E1.4306
G1 X113.303 Y43.45 E1.44813
G1 X112.787 Y43.968 E1.47245
G1 X112.202 Y44.498 E1.4987
G1 X111.588 Y44.953 E1.52412
G1 X110.682 Y45.557 E1.56034
G1 X110.003 Y45.961 E1.58661
G1 X108.946 Y46.424 E1.625
G1 X107.918 Y46.786 E1.66124
G1 X107.161 Y47.01 E1.6875
G1 X106.211 Y47.179 E1.71959
G1 X105.299 Y47.283 E1.75012
G1 X104.511 Y47.332 E1.77638
G1 X103.843 Y47.312 E1.79861
G1 X103.108 Y47.258 E1.82312
G1 X102.325 Y47.16 E1.84937
G1 X101.855 Y47.062 E1.86534
G1 X101.157 Y46.894 E1.88922
G1 X100.399 Y46.671 E1.9155
G1 X99.949 Y46.497 E1.93154
G1 X99.269 Y46.21 E1.95609
G1 X98.558 Y45.867 E1.98235
G1 X98.118 Y45.607 E1.99935
G1 X97.498 Y45.213 E2.02378
G1 X96.854 Y44.756 E2.05004
G1 X96.479 Y44.441 E2.06633
G1 X95.934 Y43.953 E2.09066
G1 X95.373 Y43.397 E2.11694
G1 X95.047 Y43.016 E2.13361
G1 X94.59 Y42.445 E2.15794
G1 X94.129 Y41.804 E2.1842
G1 X93.881 Y41.393 E2.20016
G1 X93.528 Y40.765 E2.22413
G1 X93.176 Y40.058 E2.25039
G1 X92.946 Y39.464 E2.27158
G1 X92.653 Y38.606 E2.30174
G1 X92.435 Y37.846 E2.32803
G1 X92.293 Y37.039 E2.35529
G1 X92.18 Y36.122 E2.38602
G1 X92.123 Y35.334 E2.41229
G1 X92.163 Y34.363 E2.44462
G1 X92.276 Y33.274 E2.48103
G1 X92.397 Y32.494 E2.50728
G1 X92.602 Y31.711 E2.5342
G1 X92.819 Y31.03 E2.55798
G0 F2400 X93.2 Y31.151
G1 F600 X93.472 Y30.432 E2.58354
G1 X93.663 Y30.029 E2.59838
G1 X93.999 Y29.372 E2.62292
G1 X94.384 Y28.706 E2.64851
G1 X94.634 Y28.345 E2.66311
G1 X95.066 Y27.76 E2.6873
G1 X95.555 Y27.166 E2.71289
G1 X95.858 Y26.852 E2.7274
G1 X96.377 Y26.347 E2.75149
G1 X96.956 Y25.84 E2.77709
G1 X97.322 Y25.57 E2.79221
G1 X97.935 Y25.145 E2.81702
G1 X98.589 Y24.74 E2.84261
G1 X98.982 Y24.539 E2.85729
G1 X99.634 Y24.23 E2.88129
G1 X100.345 Y23.937 E2.90686
G1 X101.082 Y23.72 E2.93242
G1 X102.157 Y23.463 E2.96918
G1 X102.914 Y23.323 E2.99478
G1 X103.662 Y23.263 E3.01974
G1 X104.382 Y23.242 E3.0437
G1 X105.151 Y23.26 E3.06928
G1 X105.583 Y23.305 E3.08373
G1 X106.313 Y23.403 E3.10823
G1 X107.069 Y23.545 E3.13381
G1 X107.8 Y23.762 E3.15917
G1 X108.824 Y24.125 E3.19531
G1 X109.535 Y24.42 E3.22091
G1 X110.19 Y24.773 E3.24566
G1 X110.823 Y25.157 E3.27028
G1 X111.459 Y25.59 E3.29587
G1 X111.813 Y25.876 E3.31101
G1 X112.359 Y26.346 E3.33497
G1 X112.915 Y26.877 E3.36054
G1 X113.187 Y27.182 E3.37414
G1 X113.651 Y27.732 E3.39807
G1 X114.116 Y28.345 E3.42366
G1 X114.362 Y28.733 E3.43894
G1 X114.744 Y29.378 E3.46387
G1 X115.101 Y30.059 E3.48945
G1 X115.277 Y30.474 E3.50444
G1 X115.534 Y31.137 E3.52809
G1 X115.774 Y31.868 E3.55368
G1 X115.876 Y32.292 E3.56819
G1 X116.028 Y33.016 E3.59279
G1 X116.147 Y33.775 E3.61834
G1 X116.18 Y34.245 E3.63401
G1 X116.209 Y34.982 E3.65855
G1 X116.2 Y35.751 E3.68412
G1 X116.16 Y36.173 E3.69822
G1 X116.073 Y36.883 E3.72201
G1 X115.94 Y37.641 E3.74761
G1 X115.828 Y38.068 E3.76229
G1 X115.621 Y38.773 E3.78673
G1 X115.367 Y39.499 E3.81231
G1 X115.176 Y39.924 E3.82781
G1 X114.859 Y40.576 E3.85192
G1 X114.487 Y41.249 E3.8775
G1 X114.25 Y41.607 E3.89178
G1 X113.823 Y42.212 E3.91641
G1 X113.347 Y42.817 E3.94201
G1 X113.02 Y43.167 E3.95794
G1 X112.504 Y43.685 E3.98226
G1 X111.933 Y44.201 E4.00786
G1 X111.366 Y44.62 E4.03131
G1 X110.46 Y45.224 E4.06753
G1 X109.798 Y45.617 E4.09313
G1 X108.813 Y46.047 E4.12888
G1 X107.785 Y46.409 E4.16513
G1 X107.047 Y46.626 E4.19071
G1 X106.165 Y46.781 E4.2205
G1 X105.253 Y46.885 E4.25103
G1 X104.486 Y46.933 E4.27659
G1 X103.873 Y46.913 E4.29699
G1 X103.138 Y46.859 E4.3215
G1 X102.375 Y46.763 E4.34708
G1 X101.948 Y46.674 E4.36158
G1 X101.25 Y46.506 E4.38546
G1 X100.513 Y46.287 E4.41103
G1 X100.105 Y46.129 E4.42559
G1 X99.425 Y45.842 E4.45014
G1 X98.732 Y45.506 E4.47575
G1 X98.333 Y45.27 E4.49117
G1 X97.713 Y44.876 E4.5156
G1 X97.086 Y44.43 E4.54119
G1 X96.746 Y44.143 E4.55599
G1 X96.201 Y43.655 E4.58032
G1 X95.655 Y43.113 E4.60591
G1 X95.36 Y42.766 E4.62106
G1 X94.903 Y42.195 E4.64539
G1 X94.454 Y41.57 E4.67098
G1 X94.229 Y41.197 E4.68547
G1 X93.876 Y40.569 E4.70943
G1 X93.535 Y39.88 E4.735
G1 X93.324 Y39.334 E4.75447
G1 X93.031 Y38.476 E4.78462
G1 X92.821 Y37.737 E4.81018
G1 X92.69 Y36.99 E4.8354
G1 X92.577 Y36.073 E4.86613
G1 X92.522 Y35.306 E4.89171
G1 X92.561 Y34.404 E4.92174
G1 X92.674 Y33.315 E4.95815
G1 X92.793 Y32.555 E4.98374
G1 X92.983 Y31.832 E5.0086
G1 X93.2 Y31.151 E5.03237
G0 F2400 X93.581 Y31.273
G1 F600 X93.846 Y30.573 E5.05727
G1 X94.019 Y30.211 E5.07061
G1 X94.355 Y29.554 E5.09516
G1 X94.73 Y28.907 E5.12003
G1 X94.956 Y28.583 E5.13317
G1 X95.388 Y27.998 E5.15735
G1 X95.864 Y27.421 E5.18223
G1 X96.137 Y27.139 E5.19529
G1 X96.656 Y26.634 E5.21937
G1 X97.22 Y26.142 E5.24427
G1 X97.55 Y25.898 E5.25792
G1 X98.163 Y25.473 E5.28273
G1 X98.799 Y25.081 E5.30757
G1 X99.153 Y24.9 E5.3208
G1 X99.805 Y24.591 E5.3448
G1 X100.497 Y24.308 E5.36966
G1 X101.175 Y24.109 E5.39316
G1 X102.25 Y23.852 E5.42993
G1 X102.986 Y23.717 E5.45481
G1 X103.674 Y23.663 E5.47777
G1 X104.394 Y23.642 E5.50172
G1 X105.142 Y23.66 E5.52661
G1 X105.529 Y23.701 E5.53955
G1 X106.259 Y23.799 E5.56405
G1 X106.994 Y23.938 E5.58893
G1 X107.667 Y24.139 E5.61229
G1 X108.691 Y24.502 E5.64843
G1 X109.382 Y24.79 E5.67333
G1 X109.983 Y25.115 E5.69605
G1 X110.616 Y25.499 E5.72068
G1 X111.234 Y25.921 E5.74557
G1 X111.552 Y26.179 E5.75919
G1 X112.098 Y26.649 E5.78315
G1 X112.881 Y27.44 E5.82017
G1 X113.345 Y27.99 E5.8441
G1 X113.796 Y28.587 E5.86898
G1 X114.018 Y28.937 E5.88277
G1 X114.4 Y29.582 E5.9077
G1 X114.746 Y30.245 E5.93258
G1 X114.904 Y30.619 E5.94608
G1 X115.161 Y31.282 E5.96973
G1 X115.394 Y31.993 E5.99462
G1 X115.485 Y32.374 E6.00764
G1 X115.637 Y33.098 E6.03225
G1 X115.751 Y33.837 E6.05712
G1 X115.781 Y34.261 E6.07126
G1 X115.81 Y34.998 E6.09579
G1 X115.799 Y35.746 E6.12067
G1 X115.763 Y36.124 E6.1333
G1 X115.676 Y36.834 E6.15709
G1 X115.546 Y37.571 E6.18198
G1 X115.444 Y37.955 E6.1952
G1 X115.237 Y38.66 E6.21963
G1 X114.989 Y39.366 E6.24452
G1 X114.816 Y39.749 E6.2585
G1 X114.499 Y40.401 E6.28261
G1 X114.137 Y41.055 E6.30748
G1 X113.923 Y41.376 E6.32031
G1 X113.496 Y41.981 E6.34494
G1 X113.033 Y42.569 E6.36983
G1 X112.736 Y42.885 E6.38425
G1 X112.22 Y43.403 E6.40857
G1 X111.665 Y43.904 E6.43344
G1 X111.144 Y44.287 E6.45495
G1 X110.238 Y44.891 E6.49116
G1 X109.594 Y45.272 E6.51605
G1 X108.68 Y45.67 E6.54921
G1 X107.652 Y46.032 E6.58546
G1 X106.934 Y46.242 E6.61034
G1 X106.12 Y46.384 E6.63782
G1 X105.208 Y46.488 E6.66835
G1 X104.461 Y46.533 E6.69324
G1 X103.902 Y46.514 E6.71184
G1 X103.167 Y46.46 E6.73635
G1 X102.425 Y46.366 E6.76123
G1 X102.042 Y46.285 E6.77425
G1 X101.344 Y46.117 E6.79813
G1 X100.627 Y45.903 E6.82302
G1 X100.26 Y45.76 E6.83612
G1 X99.58 Y45.473 E6.86067
G1 X98.907 Y45.146 E6.88555
G1 X98.548 Y44.932 E6.89945
G1 X97.928 Y44.538 E6.92389
G1 X97.319 Y44.104 E6.94876
G1 X97.012 Y43.845 E6.96212
G1 X96.467 Y43.357 E6.98645
G1 X95.938 Y42.829 E7.01131
G1 X95.672 Y42.516 E7.02497
G1 X95.215 Y41.945 E7.0493
G1 X94.779 Y41.337 E7.07418
G1 X94.578 Y41.001 E7.0872
G1 X94.225 Y40.373 E7.11116
G1 X93.894 Y39.702 E7.13605
G1 X93.703 Y39.205 E7.15376
G1 X93.41 Y38.347 E7.18391
G1 X93.206 Y37.627 E7.2088
G1 X93.087 Y36.941 E7.23196
G1 X92.974 Y36.024 E7.26269
G1 X92.922 Y35.278 E7.28756
G1 X92.958 Y34.446 E7.31526
G1 X93.071 Y33.357 E7.35168
G1 X93.188 Y32.618 E7.37656
G1 X93.364 Y31.954 E7.39941
G1 X93.581 Y31.273 E7.42318
G0 F2400 X93.963 Y31.394
G1 F600 X94.375 Y30.393 E7.45918
G1 X94.711 Y29.736 E7.48373
G1 X95.278 Y28.82 E7.51956
G1 X95.71 Y28.235 E7.54375
G1 X96.416 Y27.426 E7.57946
G1 X96.935 Y26.921 E7.60354
G1 X97.483 Y26.444 E7.62771
G1 X97.778 Y26.227 E7.63989
G1 X98.391 Y25.802 E7.6647
G1 X99.324 Y25.262 E7.70055
G1 X99.976 Y24.953 E7.72455
G1 X100.649 Y24.678 E7.74873
G1 X101.268 Y24.498 E7.77017
G1 X102.343 Y24.241 E7.80693
G1 X103.058 Y24.111 E7.8311
G1 X103.686 Y24.063 E7.85205
G1 X104.406 Y24.042 E7.87601
G1 X105.476 Y24.098 E7.91165
G1 X106.206 Y24.196 E7.93615
G1 X106.92 Y24.332 E7.96032
G1 X107.533 Y24.516 E7.98161
G1 X108.557 Y24.879 E8.01774
G1 X109.227 Y25.159 E8.04189
G1 X109.775 Y25.457 E8.06264
G1 X110.408 Y25.841 E8.08727
G1 X111.008 Y26.251 E8.11144
G1 X111.291 Y26.482 E8.12359
G1 X111.837 Y26.952 E8.14755
G1 X112.576 Y27.698 E8.18247
G1 X113.04 Y28.248 E8.20641
G1 X113.477 Y28.828 E8.23056
G1 X113.674 Y29.141 E8.24286
G1 X114.056 Y29.786 E8.26779
G1 X114.531 Y30.764 E8.30396
G1 X114.788 Y31.427 E8.32761
G1 X115.093 Y32.456 E8.3633
G1 X115.245 Y33.18 E8.38791
G1 X115.355 Y33.898 E8.41207
G1 X115.381 Y34.276 E8.42467
G1 X115.41 Y35.013 E8.4492
G1 X115.366 Y36.076 E8.48459
G1 X115.279 Y36.786 E8.50838
G1 X115.061 Y37.842 E8.54424
G1 X114.854 Y38.547 E8.56868
G1 X114.611 Y39.232 E8.59285
G1 X114.457 Y39.574 E8.60533
G1 X114.14 Y40.226 E8.62944
G1 X113.596 Y41.146 E8.66499
G1 X113.169 Y41.751 E8.68962
G1 X112.718 Y42.32 E8.71377
G1 X112.453 Y42.603 E8.72666
G1 X111.937 Y43.121 E8.75098
G1 X111.397 Y43.606 E8.77512
G1 X110.922 Y43.955 E8.79473
G1 X110.016 Y44.559 E8.83094
G1 X109.39 Y44.928 E8.85511
G1 X108.547 Y45.292 E8.88565
G1 X107.519 Y45.654 E8.9219
G1 X106.822 Y45.857 E8.94605
G1 X106.075 Y45.987 E8.97127
G1 X105.163 Y46.091 E9.0018
G1 X104.438 Y46.133 E9.02595
G1 X103.931 Y46.115 E9.04282
G1 X103.196 Y46.061 E9.06734
G1 X102.136 Y45.896 E9.10302
G1 X101.438 Y45.728 E9.12689
G1 X100.416 Y45.392 E9.16268
G1 X99.736 Y45.105 E9.18723
G1 X99.083 Y44.786 E9.2114
G1 X98.762 Y44.594 E9.22384
G1 X98.142 Y44.2 E9.24827
G1 X97.279 Y43.547 E9.28427
G1 X96.734 Y43.059 E9.3086
G1 X96.221 Y42.545 E9.33275
G1 X95.984 Y42.266 E9.34493
G1 X95.527 Y41.695 E9.36925
G1 X94.927 Y40.805 E9.40495
G1 X94.574 Y40.177 E9.42891
G1 X94.253 Y39.525 E9.45308
G1 X94.081 Y39.076 E9.46908
G1 X93.788 Y38.218 E9.49923
G1 X93.592 Y37.519 E9.52338
G1 X93.484 Y36.892 E9.54454
G1 X93.371 Y35.975 E9.57527
G1 X93.322 Y35.25 E9.59944
G1 X93.356 Y34.487 E9.62484
G1 X93.469 Y33.398 E9.66125
G1 X93.584 Y32.681 E9.68541
G1 X93.746 Y32.075 E9.70627
G1 X93.963 Y31.394 E9.73004
G0 F2400 X94.344 Y31.516
G1 F600 X94.731 Y30.575 E9.76388
G1 X95.067 Y29.918 E9.78843
G1 X95.6 Y29.058 E9.82208
G1 X96.032 Y28.473 E9.84627
G1 X96.695 Y27.712 E9.87984
G1 X97.214 Y27.207 E9.90392
G1 X98.005 Y26.556 E9.93799
G1 X98.618 Y26.131 E9.9628
G1 X99.496 Y25.623 E9.99654
G1 X100.148 Y25.314 E10.02054
G1 X100.8 Y25.049 E10.04395
G1 X101.361 Y24.887 E10.06337
G1 X102.436 Y24.63 E10.10013
G1 X103.129 Y24.505 E10.12355
G1 X103.697 Y24.463 E10.1425
G1 X104.417 Y24.442 E10.16645
G1 X105.423 Y24.494 E10.19996
G1 X106.153 Y24.592 E10.22445
G1 X106.844 Y24.725 E10.24786
G1 X107.4 Y24.893 E10.26718
G1 X108.424 Y25.256 E10.30331
G1 X109.073 Y25.529 E10.32673
G1 X109.568 Y25.799 E10.34548
G1 X110.201 Y26.183 E10.37011
G1 X111.03 Y26.785 E10.40418
G1 X111.576 Y27.255 E10.42815
G1 X112.27 Y27.956 E10.46096
G1 X112.734 Y28.506 E10.48489
G1 X113.33 Y29.345 E10.51912
G1 X113.712 Y29.99 E10.54405
G1 X114.158 Y30.908 E10.578
G1 X114.415 Y31.571 E10.60165
G1 X114.702 Y32.538 E10.6352
G1 X114.854 Y33.262 E10.6598
G1 X114.981 Y34.292 E10.69432
G1 X115.01 Y35.029 E10.71885
G1 X114.969 Y36.027 E10.75207
G1 X114.882 Y36.737 E10.77586
G1 X114.677 Y37.73 E10.80959
G1 X114.47 Y38.435 E10.83403
G1 X114.097 Y39.399 E10.8684
G1 X113.78 Y40.051 E10.89252
G1 X113.269 Y40.915 E10.9259
G1 X112.842 Y41.52 E10.95053
G1 X112.17 Y42.321 E10.98531
G1 X111.654 Y42.839 E11.00963
G1 X111.129 Y43.308 E11.03304
G1 X110.7 Y43.622 E11.05072
G1 X109.794 Y44.226 E11.08694
G1 X109.187 Y44.582 E11.11034
G1 X108.414 Y44.915 E11.13834
G1 X107.386 Y45.277 E11.17459
G1 X106.71 Y45.473 E11.198
G1 X106.029 Y45.589 E11.22097
G1 X105.117 Y45.693 E11.2515
G1 X104.415 Y45.733 E11.27489
G1 X103.961 Y45.716 E11.29
G1 X103.226 Y45.662 E11.31451
G1 X102.229 Y45.507 E11.34807
G1 X101.531 Y45.339 E11.37195
G1 X100.571 Y45.023 E11.40557
G1 X99.891 Y44.736 E11.43011
G1 X98.977 Y44.257 E11.46444
G1 X98.357 Y43.863 E11.48887
G1 X97.546 Y43.249 E11.5227
G1 X97.001 Y42.761 E11.54703
G1 X96.296 Y42.016 E11.58115
G1 X95.839 Y41.445 E11.60547
G1 X95.275 Y40.609 E11.63901
G1 X94.922 Y39.981 E11.66298
G1 X94.613 Y39.349 E11.68637
G1 X94.46 Y38.947 E11.70068
G1 X94.167 Y38.089 E11.73084
G1 X93.977 Y37.411 E11.75425
G1 X93.881 Y36.843 E11.77341
G1 X93.768 Y35.926 E11.80414
G1 X93.721 Y35.224 E11.82755
G1 X93.754 Y34.528 E11.85072
G1 X93.867 Y33.439 E11.88713
G1 X93.979 Y32.744 E11.91055
G1 X94.127 Y32.197 E11.9294
G1 X94.344 Y31.516 E11.95317
G0 F2400 X94.725 Y31.637
G1 F600 X95.087 Y30.757 E11.98482
G1 X95.423 Y30.1 E12.00936
G1 X95.921 Y29.296 E12.04082
G1 X96.353 Y28.711 E12.065
G1 X96.974 Y27.999 E12.09643
G1 X97.493 Y27.494 E12.12051
G1 X98.233 Y26.885 E12.15239
G1 X98.846 Y26.46 E12.1772
G1 X99.667 Y25.985 E12.20874
G1 X100.319 Y25.676 E12.23274
G1 X100.95 Y25.421 E12.25538
G1 X101.454 Y25.276 E12.27282
G1 X102.529 Y25.019 E12.30958
G1 X103.2 Y24.9 E12.33225
G1 X103.709 Y24.862 E12.34923
G1 X104.429 Y24.841 E12.37318
G1 X105.37 Y24.891 E12.40453
G1 X106.1 Y24.989 E12.42902
